logos/compass.svg

<?xml version="1.0" encoding="UTF-8" standalone="no" ?>
<svg width="256px" height="256px" viewBox="0 0 256 256" version="1.1" xmlns="http://www.w3.org/2000/svg" xmlns:xlink="http://www.w3.org/1999/xlink" preserveAspectRatio="xMidYMid">
    <defs>
        <path id="path-1" d="M255.774254,0 C252.399891,68.4647791 242.410695,131.708591 215.744528,191.254384 C195.276518,236.959819 148.479079,260.749775 95.7033099,254.055791 C52.3241998,248.554202 12.5442779,211.449182 2.85984385,167.45544 C-7.94571431,118.366562 12.3304449,67.0117363 55.8774239,44.6588453 C117.3484,13.1043487 184.550898,4.1254431 255.774254,0"></path>
    </defs>
    <g>
        <mask id="mask-2" fill="white">
            <use xlink:href="#path-1"></use>
        </mask>
        <use fill="#ffffff" xlink:href="#path-1"></use>
        <g mask="url(#mask-2)">
            <path d="M113.789102,76.0935034 C113.789102,76.0935034 107.895706,108.750515 105.550539,125.297227 C93.6138642,115.993758 69.9913193,99.0675577 69.9913193,99.0675577 C69.9913193,99.0675577 88.5238407,123.990986 97.2750039,135.122992 C80.6499922,137.007453 47.3240281,142.196464 47.3240281,142.196464 C47.3240281,142.196464 81.4074005,147.67808 97.28,149.512609 C88.074192,161.169907 69.9063856,184.804072 69.9063856,184.804072 C69.9063856,184.804072 94.5871038,167.756036 105.67744,159.210546 C107.939672,175.070183 113.789102,208.848684 113.789102,208.848684 C113.789102,208.848684 119.139922,175.098146 121.173333,158.650301 C132.137767,167.19579 155.287681,185.045747 155.287681,185.045747 C155.287681,185.045747 139.160281,160.904265 130.32918,149.501624 C146.370648,147.618161 178.966183,142.196464 178.966183,142.196464 C178.966183,142.196464 146.052896,136.954525 130.44509,135.149955 C138.522779,124.202701 155.44256,99.0545752 155.44256,99.0545752 C155.44256,99.0545752 131.732084,117.442807 121.15235,125.9114 C119.194879,109.569412 113.789102,76.0935034 113.789102,76.0935034 M255.800156,0.461378531 C252.425792,68.9261577 242.436596,132.169969 215.770429,191.715762 C195.30242,237.421198 148.50498,261.211153 95.7292116,254.51717 C52.3501015,249.01558 12.5701795,211.91056 2.88574551,167.916819 C-7.91981265,118.827941 12.3563466,67.4731149 55.9033255,45.1202238 C117.374301,13.5657272 184.576799,4.58682163 255.800156,0.461378531" fill="#E21708"></path>
            <path d="M6.19516003,103.901047 C10.0871194,92.4394856 15.7756753,81.7349045 23.1319282,72.3046069 C25.909758,68.8842142 28.9973458,65.467816 32.4276659,61.9445617 C35.4582982,59.0065192 38.6667916,56.2682077 42.0711319,53.7296271 C45.1956909,51.4506968 48.64,49.210714 52.3361124,47.0306505 C53.5071975,46.3675437 54.6962685,45.7254087 55.9033255,45.1062427 C70.7866979,37.4665332 86.0038095,31.1500414 101.535675,25.9051063 C141.800219,12.3104181 184.158126,5.91603121 228.178735,2.34584019 C239.039251,1.51795534 248.438907,0.972689804 255.800156,0.461378531 C180.863653,16.6232719 141.051378,32.5257029 92.5649685,53.7296266 C44.0785589,74.9335503 2.68726221,120.999892 0.492615144,134.190248 C1.78360656,122.256323 3.59419204,112.446536 6.19516003,103.901047 Z" fill-opacity="0.3" fill="#FA524A"></path>
            <path d="M97.01121,259.081814 C92.3038876,258.482621 87.4207026,257.569851 82.4775644,256.245635 C64.2637939,250.993709 45.2316628,239.761838 30.0445277,223.37591 C16.817861,208.955334 7.05848556,191.279143 2.88574551,172.324675 C0.934270101,163.458617 -0.00299765808,154.516662 0.0269789227,145.687554 C0.570554254,225.661831 94.0206321,238.023534 119.012108,238.024217 C158.68281,238.025302 158.187416,230.12382 219.802279,186.789191 C218.498298,189.921971 217.157346,193.027788 215.770429,196.123618 C201.342701,228.341221 173.828197,249.669493 140.363341,257.107474 C131.580203,259.051855 122.495301,260.039524 113.137611,260.039524 C107.841749,260.039524 102.460952,259.722951 97.01121,259.081814 Z" fill-opacity="0.3" fill="#AE0E10"></path>
        </g>
    </g>
</svg>

<svg xmlns:xlink="http://www.w3.org/1999/xlink" preserveAspectRatio="xMidYMid" viewBox="0 0 256 256" xmlns="http://www.w3.org/2000/svg">
  <defs>
    <path id="compass_svg__a" d="M255.774 0c-3.374 68.465-13.363 131.709-40.03 191.254-20.467 45.706-67.265 69.496-120.04 62.802-43.38-5.502-83.16-42.607-92.844-86.6-10.806-49.09 9.47-100.444 53.017-122.797C117.348 13.104 184.551 4.125 255.774 0"/>
  </defs>
  <mask id="compass_svg__b" fill="#fff">
    <use xlink:href="#compass_svg__a"/>
  </mask>
  <use xlink:href="#compass_svg__a" fill="#fff"/>
  <g mask="url(#compass_svg__b)">
    <path fill="#E21708" d="M113.79 76.094s-5.894 32.657-8.24 49.203c-11.936-9.303-35.559-26.23-35.559-26.23s18.533 24.924 27.284 36.056c-16.625 1.884-49.951 7.073-49.951 7.073s34.083 5.482 49.956 7.317c-9.206 11.657-27.374 35.291-27.374 35.291s24.681-17.048 35.771-25.593c2.263 15.86 8.112 49.638 8.112 49.638s5.35-33.75 7.384-50.199c10.965 8.546 34.115 26.396 34.115 26.396s-16.128-24.142-24.959-35.544c16.042-1.884 48.637-7.306 48.637-7.306s-32.913-5.241-48.52-7.046c8.077-10.947 24.997-36.095 24.997-36.095s-23.71 18.388-34.29 26.856c-1.958-16.342-7.364-49.817-7.364-49.817M255.8.46c-3.374 68.465-13.363 131.709-40.03 191.255-20.468 45.705-67.265 69.495-120.04 62.801-43.38-5.501-83.16-42.606-92.844-86.6-10.806-49.09 9.47-100.444 53.017-122.797C117.374 13.566 184.577 4.587 255.8.461"/>
    <path fill="#FA524A" fill-opacity=".3" d="M6.195 103.901c3.892-11.462 9.58-22.166 16.937-31.596 2.778-3.42 5.865-6.837 9.296-10.36a98 98 0 0 1 9.643-8.215c3.125-2.28 6.569-4.52 10.265-6.7a98.234 98.234 0 0 1 3.567-1.924c14.884-7.64 30.1-13.956 45.633-19.2C141.8 12.31 184.158 5.915 228.179 2.345 239.039 1.518 248.439.973 255.8.46 180.864 16.623 141.051 32.526 92.565 53.73 44.079 74.934 2.687 121 .493 134.19c1.29-11.934 3.101-21.743 5.702-30.289Z"/>
    <path fill="#AE0E10" fill-opacity=".3" d="M97.011 259.082a109.76 109.76 0 0 1-14.533-2.836c-18.214-5.252-37.246-16.484-52.433-32.87-13.227-14.42-22.987-32.097-27.16-51.051a122.038 122.038 0 0 1-2.858-26.637c.544 79.974 93.994 92.336 118.985 92.336 39.67.001 39.175-7.9 100.79-51.235a379.606 379.606 0 0 1-4.032 9.335c-14.427 32.217-41.942 53.545-75.407 60.983-8.783 1.945-17.868 2.933-27.225 2.933a138.04 138.04 0 0 1-16.127-.958Z"/>
  </g>
</svg>
